!! 00007] TT[TB
!! Eigene Aufnahme
!!!OTL: Shu yadan
!!!ARE: Asia, China,ÿJiangsu, Gaoyou
!! Ethnic Group: Han
!! III, 444
!!!SCT: C0164
!!!YEM: Copyright 1995, estate of Helmut Schaffrath.
**kern
*ICvox
*Ivox
*M2/4
*k[f#]
*G:
{8.a
16b
8b
8g
=1
8a
8b
16b
16a
8g
=2
16a
16b
16a
16b
8dd
16a
16b
=3
16a
16g
8e
4d}
=4
{8.a
16b
8g
8a
=5
8b
16b
16dd
16b
16a
8g
=6
16a
16b
16a
16b
8dd
16a
16b
=7
16a
16g
8e
4d}
=8
{1ffxx#
=9
16dd
16ee
16dd
16b
4a
=10
16dd
16ee
16dd
16b
4a
=11
1ffxx#}
{8.a
16b
8g
8a
=12
8b
16b
16dd
16b
16a
8g
=13
16dd
16ee
16dd
16b
4a
=14
16dd
16ee
16dd
16b
4a}
==
!!!AGN: Haozi, Erge, Fangya haozi, Laodong zhong chang. Xin minge
!! der Arbeit aus Charakter des Kinderliedes Fangya
!! HAOZI
!! "Enteneier zaehlen", aber korbweise. Auch unter dem Titel: "Enten
!!    ins Freie lassen". - Soleier.
!!    Saengerin: Huang Bai
!!    Vorspiel weggelassen. Der dritten/letzten Strophe folgt:  x__x__ .
!!!ONB: ESAC (Essen Associative Code) Database: CHINA
!!!AMT: simple duple
!!!AIN: vox
!!!EED: Helmut Schaffrath
!!!EEV: 1.0
!!!ONB: Removed strange mixture of notes and comments found by Marcus Pierce 2004/06/05
*-
